src/assets/duotone/Broom.svg

<svg width="24" height="24" viewBox="0 0 24 24"  xmlns="http://www.w3.org/2000/svg">
<path opacity="0.4" d="M9.82997 5.57026L6.35997 7.68024L4.77997 5.08027C4.19997 4.13027 4.49998 2.87023 5.45998 2.29023C6.40998 1.71023 7.66997 2.01022 8.24997 2.97022L9.82997 5.57026Z" />
<path opacity="0.4" d="M19.2702 17.6403L19.2601 17.6503L17.9602 18.4403L16.6602 19.2302L15.3602 20.0203L14.0602 20.8103L12.7601 21.6002H12.7502C11.4402 22.4002 9.82015 21.9203 9.15015 20.5503L7.07016 16.3103C6.34016 14.8303 6.57016 13.0303 7.69016 11.8003C7.95016 11.5203 8.25016 11.2603 8.60016 11.0503L11.8102 9.10024C12.1702 8.89024 12.5301 8.73028 12.9001 8.64028C14.5001 8.20028 16.2001 8.82029 17.1801 10.1503L19.9902 13.9503C20.9002 15.2003 20.5802 16.8503 19.2702 17.6403Z" />
<path d="M12.8998 8.65957C12.5298 8.74957 12.1698 8.8996 11.8098 9.1196L8.59981 11.0696C8.23981 11.2796 7.9498 11.5396 7.6898 11.8196C7.6798 11.8196 7.67979 11.8096 7.67979 11.8096L6.0298 9.07962C5.7398 8.59962 5.8898 7.9696 6.3598 7.6896L9.8298 5.57962C10.3098 5.28962 10.9298 5.43957 11.2198 5.90957L12.8798 8.63962C12.8898 8.64962 12.8998 8.64957 12.8998 8.65957Z" />
<path d="M16.6599 19.2297L15.3599 20.0197L13.6899 17.2697C13.4799 16.9097 13.5899 16.4497 13.9399 16.2197C14.3099 16.0097 14.7699 16.1197 14.9899 16.4697L16.6599 19.2297Z" />
<path d="M14.0602 20.8195L12.7602 21.6095L11.0902 18.8595C10.8702 18.4995 10.9802 18.0395 11.3402 17.8095C11.7002 17.5995 12.1602 17.7095 12.3902 18.0595L14.0602 20.8195Z" />
<path d="M19.26 17.6496L17.96 18.4396L16.29 15.6896C16.08 15.3296 16.19 14.8696 16.54 14.6396C16.91 14.4296 17.37 14.5396 17.59 14.8896L19.26 17.6496Z" />
</svg>

<?xml version="1.0" encoding="UTF-8"?>
<svg width="24" height="24" viewBox="0 0 24 24" xmlns="http://www.w3.org/2000/svg">
 <path d="m9.83 5.5703-3.47 2.11-1.58-2.6c-0.58-0.95-0.27999-2.21 0.68001-2.79 0.95-0.58 2.21-0.28001 2.79 0.67999l1.58 2.6z" opacity=".4"/>
 <path d="m19.27 17.64-0.0101 0.01-1.2999 0.79-1.3 0.7899-1.3 0.7901-1.3 0.79-1.3001 0.7899h-0.0099c-1.31 0.8-2.93 0.3201-3.6-1.0499l-2.08-4.24c-0.73-1.48-0.5-3.28 0.62-4.51 0.26-0.28 0.56-0.54 0.91-0.75l3.21-1.9501c0.36-0.21 0.7199-0.36996 1.0899-0.45996 1.6-0.44 3.3 0.18001 4.28 1.51l2.8101 3.8c0.91 1.25 0.59 2.9-0.72 3.69z" opacity=".4"/>
 <path d="m12.9 8.6596c-0.37 0.09-0.73 0.24003-1.09 0.46003l-3.21 1.95c-0.36 0.21-0.65001 0.47-0.91001 0.75-0.01 0-0.01001-0.01-0.01001-0.01l-1.65-2.73c-0.29-0.48-0.14-1.11 0.33-1.39l3.47-2.11c0.48-0.29 1.1-0.14005 1.39 0.32995l1.66 2.73c0.01 0.01 0.02 0.00995 0.02 0.01995z"/>
 <path d="m16.66 19.23-1.3 0.79-1.67-2.75c-0.21-0.36-0.1-0.82 0.25-1.05 0.37-0.21 0.83-0.1 1.05 0.25l1.67 2.76z"/>
 <path d="m14.06 20.82-1.3 0.79-1.67-2.75c-0.22-0.36-0.11-0.82 0.25-1.05 0.36-0.21 0.82-0.1 1.05 0.25l1.67 2.76z"/>
 <path d="m19.26 17.65-1.3 0.79-1.67-2.75c-0.21-0.36-0.1-0.82 0.25-1.05 0.37-0.21 0.83-0.1 1.05 0.25l1.67 2.76z"/>
</svg>
